X: 135
T: REEL: Humours of Lissadell
C: C: Trad.; S: Bothy Band
C: Set Leaders: Anton, Mars
Z: Anton Zille ed.; Caoimghgin at The Session
N: https://thesession.org/members/26966/sets/94457
R: Reel
M: 4/4
L: 1/8
Q: 1/2=100
K: Edor
gf|:eB~B2 eBdB|AF~F2 EDB,A,|B,E~E2 B,EGE|FB~B2 FBdf|
eB~B2 eBdB|AF~F2 EDB,A,|B,EED EFGA|B/c/d ed e2gf:||
|:eB~B2 A2FA|d2 df edef|df~f2 dfbf|afdf edBc|
d2 fd BcdB|AF~F2 ABde|~f2ef dfbf|afdf e2gf:||

